src/images/tech/html.svg

<svg viewBox="0 0 120 120" fill="none" xmlns="http://www.w3.org/2000/svg">
<path d="M22.1325 102.004L13.7063 7.5H106.294L97.8563 101.989L59.9438 112.5L22.1325 102.004Z" fill="#E44F26"/>
<path d="M60 104.467L90.6375 95.9737L97.845 15.2287H60V104.467Z" fill="#F1662A"/>
<path d="M60 50.2763H44.6625L43.605 38.4075H60V26.8163H30.9375L31.215 29.9288L34.0613 61.8675H60V50.2763ZM60 80.3775L59.9475 80.3925L47.04 76.9088L46.215 67.665H34.5787L36.2025 85.86L59.9475 92.4525L60 92.4375V80.3775Z" fill="#EBEBEB"/>
<path d="M59.9587 50.2763V61.8675H74.2312L72.8887 76.9013L59.9587 80.3888V92.4488L83.7225 85.86L83.895 83.9025L86.6175 53.3888L86.9025 50.2763H59.9587ZM59.9587 26.8163V38.4075H87.9562L88.1887 35.805L88.7175 29.9288L88.995 26.8163H59.9587Z" fill="white"/>
</svg>

<svg viewBox="0 0 120 120" fill="none" xmlns="http://www.w3.org/2000/svg"><path d="M22.133 102.004 13.706 7.5h92.588l-8.438 94.489L59.944 112.5l-37.812-10.496z" fill="#E44F26"/><path d="m60 104.467 30.638-8.493 7.207-80.745H60v89.238z" fill="#F1662A"/><path d="M60 50.276H44.663l-1.058-11.869H60v-11.59H30.937l.278 3.112 2.846 31.939H60V50.276zm0 30.101-.053.016-12.907-3.484-.825-9.244H34.579l1.623 18.195 23.745 6.593.053-.016v-12.06z" fill="#EBEBEB"/><path d="M59.959 50.276v11.591H74.23L72.89 76.901l-12.93 3.488v12.06l23.763-6.589.173-1.957 2.723-30.514.285-3.113H59.959zm0-23.46v11.591h27.997l.233-2.602.529-5.876.277-3.113H59.959z" fill="#fff"/></svg>
